_includes/sets/deploy.svg

<svg xmlns="http://www.w3.org/2000/svg" width="20" height="14" viewBox="0 0 20 14">
  <g fill="none" transform="translate(-2 -5)">
    <rect width="24" height="24"/>
    <path class="main" fill="#000" d="M18.1666667,10 C17.5833333,7.16666667 15.0833333,5 12,5 C9.58333333,5 7.5,6.33333333 6.5,8.33333333 C3.91666667,8.66666667 2,10.75 2,13.3333333 C2,16.0833333 4.25,18.3333333 7,18.3333333 L17.8333333,18.3333333 C20.1666667,18.3333333 22,16.5 22,14.1666667 C22,12 20.25,10.1666667 18.1666667,10 Z M13.6666667,12.5 L13.6666667,15.8333333 L10.3333333,15.8333333 L10.3333333,12.5 L7.83333333,12.5 L12,8.33333333 L16.1666667,12.5 L13.6666667,12.5 Z"/>
  </g>
</svg>

<svg width="24" height="24" xmlns="http://www.w3.org/2000/svg"><path d="M18.167 10A6.272 6.272 0 0 0 12 5C9.583 5 7.5 6.333 6.5 8.333c-2.583.334-4.5 2.417-4.5 5 0 2.75 2.25 5 5 5h10.833A4.126 4.126 0 0 0 22 14.167c0-2.167-1.75-4-3.833-4.167zm-4.5 2.5v3.333h-3.334V12.5h-2.5L12 8.333l4.167 4.167h-2.5z" class="main" fill="#0D0D17" fill-rule="nonzero"/></svg>
